img/icones/download-icone.svg

<svg width="24" height="24" viewBox="0 0 24 24" fill="none" xmlns="http://www.w3.org/2000/svg">
<path d="M18 14.9999V17.9999H6V14.9999H4V17.9999C4 19.0999 4.9 19.9999 6 19.9999H18C19.1 19.9999 20 19.0999 20 17.9999V14.9999H18ZM17 10.9999L15.59 9.58994L13 12.1699V3.99994H11V12.1699L8.41 9.58994L7 10.9999L12 15.9999L17 10.9999Z" fill="#C7D3FE"/>
</svg>

<svg width="24" height="24" fill="none" xmlns="http://www.w3.org/2000/svg"><path d="M18 15v3H6v-3H4v3c0 1.1.9 2 2 2h12c1.1 0 2-.9 2-2v-3h-2Zm-1-4-1.41-1.41L13 12.17V4h-2v8.17L8.41 9.59 7 11l5 5 5-5Z" fill="#C7D3FE"/></svg>
